app/assets/img/work/ttl-kibera-pc.svg

<svg fill="none" height="25" viewBox="0 0 117 25" width="117" xmlns="http://www.w3.org/2000/svg"><path d="m6.328 11.128h.864c.8 0 1.376-.2507 1.728-.752l5.248-7.616c.288-.416.6133-.69867.976-.848.3733-.14933.8267-.224 1.36-.224h4.704l-6.912 9.424c-.2453.3413-.5013.624-.768.848s-.5387.4107-.816.56c.4053.1493.7733.3573 1.104.624.3413.256.6507.6027.928 1.04l7.04 10.816h-4.832c-.3093 0-.576-.0213-.8-.064-.2133-.0427-.4-.1067-.56-.192s-.2987-.1867-.416-.304c-.1173-.128-.2293-.272-.336-.432l-5.28-8.112c-.192-.2987-.43733-.5067-.736-.624-.288-.128-.68267-.192-1.184-.192h-1.312v9.92h-5.408v-23.312h5.408zm22.8758-2.72v16.592h-4.9601v-16.592zm.5759-4.544c0 .39467-.08.768-.2399 1.12-.1601.34133-.3787.64533-.6561.912-.2773.256-.6026.464-.9759.624-.3627.14933-.7521.224-1.1681.224-.4053 0-.784-.07467-1.136-.224-.352-.16-.6666-.368-.944-.624-.2666-.26667-.48-.57067-.64-.912-.1493-.352-.224-.72533-.224-1.12 0-.40533.0747-.784.224-1.136.16-.352.3734-.66133.64-.928.2774-.26667.592-.47467.944-.624s.7307-.224 1.136-.224c.416 0 .8054.07467 1.1681.224.3733.14933.6986.35733.9759.624.2774.26667.496.576.6561.928.1599.352.2399.73067.2399 1.136zm3.749 21.136v-23.312h8.576c1.6107 0 2.9814.14933 4.1121.448 1.1306.29867 2.0533.72 2.768 1.264.7146.544 1.2319 1.20533 1.552 1.984.3306.77867.496 1.648.496 2.608 0 .52267-.0747 1.02933-.224 1.52-.1494.48-.384.9333-.7041 1.36-.32.4267-.7306.816-1.232 1.168-.5013.3413-1.1039.64-1.808.896 1.536.3733 2.672.9813 3.408 1.824.736.832 1.104 1.904 1.104 3.216 0 .992-.192 1.9147-.576 2.768s-.9493 1.6-1.6959 2.24c-.736.6293-1.648 1.1253-2.736 1.488-1.088.352-2.3307.528-3.7281.528zm5.408-9.888v5.808h3.8081c.7146 0 1.2959-.0907 1.744-.272.4586-.1813.816-.416 1.072-.704.2559-.288.4319-.6133.5279-.976s.144-.7307.144-1.104c0-.4267-.0586-.8107-.1759-1.152-.1067-.3413-.2987-.6293-.576-.864-.2667-.2347-.624-.416-1.0721-.544-.448-.128-1.0133-.192-1.696-.192zm0-3.616h2.816c.5974 0 1.1361-.0427 1.616-.128.48-.0853.8854-.2347 1.2161-.448.3413-.2133.5973-.5067.7679-.88.1814-.37333.2721-.84267.2721-1.408 0-.55467-.0694-1.01333-.2081-1.376-.1386-.37333-.352-.672-.64-.896-.2879-.224-.6559-.384-1.104-.48-.4373-.096-.9599-.144-1.568-.144h-3.168zm30.9201-9.808v4.16h-9.5681v5.44h7.328v4h-7.328v5.552h9.5681v4.16h-15.0081v-23.312zm8.8137 14.688v8.624h-5.408v-23.312h7.584c1.6853 0 3.12.176 4.304.528 1.1947.34133 2.1653.82133 2.912 1.44.7573.61867 1.3067 1.34933 1.648 2.192s.512 1.76.512 2.752c0 .75733-.1013 1.472-.304 2.144s-.5067 1.296-.912 1.872c-.3947.5653-.8853 1.072-1.472 1.52-.576.448-1.2427.816-2 1.104.3627.1813.6987.4053 1.008.672.32.2667.5973.592.832.976l4.96 8.112h-4.896c-.9067 0-1.5573-.3413-1.952-1.024l-3.872-6.768c-.1707-.2987-.3733-.512-.608-.64-.224-.128-.544-.192-.96-.192zm0-3.728h2.176c.736 0 1.36-.0907 1.872-.272.5227-.192.9493-.4533 1.28-.784s.5707-.7147.72-1.152c.1493-.448.224-.928.224-1.44 0-1.024-.336-1.824-1.008-2.4-.6613-.576-1.6907-.864-3.088-.864h-2.176zm37.8895 12.352h-4.192c-.47 0-.859-.1067-1.168-.32-.299-.224-.507-.5067-.624-.848l-1.376-4.064h-8.864l-1.3763 4.064c-.1066.2987-.3146.5707-.624.816-.3093.2347-.688.352-1.136.352h-4.224l9.0243-23.312h5.536zm-14.976-8.912h6.368l-2.144-6.384c-.139-.40533-.304-.88-.496-1.424-.182-.55467-.363-1.152-.544-1.792-.171.65067-.347 1.25333-.528 1.808-.182.55467-.352 1.03467-.512 1.44z" fill="#121111"/></svg>

<svg width="117" height="25" viewBox="0 0 117 25" fill="none" xmlns="http://www.w3.org/2000/svg">
<path d="M6.328 11.128H7.192C7.992 11.128 8.568 10.8773 8.92 10.376L14.168 2.76C14.456 2.344 14.7813 2.06133 15.144 1.912C15.5173 1.76267 15.9707 1.688 16.504 1.688H21.208L14.296 11.112C14.0507 11.4533 13.7947 11.736 13.528 11.96C13.2613 12.184 12.9893 12.3707 12.712 12.52C13.1173 12.6693 13.4853 12.8773 13.816 13.144C14.1573 13.4 14.4667 13.7467 14.744 14.184L21.784 25H16.952C16.6427 25 16.376 24.9787 16.152 24.936C15.9387 24.8933 15.752 24.8293 15.592 24.744C15.432 24.6587 15.2933 24.5573 15.176 24.44C15.0587 24.312 14.9467 24.168 14.84 24.008L9.56 15.896C9.368 15.5973 9.12267 15.3893 8.824 15.272C8.536 15.144 8.14133 15.08 7.64 15.08H6.328V25H0.92V1.688H6.328V11.128ZM29.2038 8.408V25H24.2437V8.408H29.2038ZM29.7797 3.864C29.7797 4.25867 29.6997 4.632 29.5398 4.984C29.3797 5.32533 29.1611 5.62933 28.8837 5.896C28.6064 6.152 28.2811 6.36 27.9078 6.52C27.5451 6.66933 27.1557 6.744 26.7397 6.744C26.3344 6.744 25.9557 6.66933 25.6037 6.52C25.2517 6.36 24.9371 6.152 24.6597 5.896C24.3931 5.62933 24.1797 5.32533 24.0197 4.984C23.8704 4.632 23.7957 4.25867 23.7957 3.864C23.7957 3.45867 23.8704 3.08 24.0197 2.728C24.1797 2.376 24.3931 2.06667 24.6597 1.8C24.9371 1.53333 25.2517 1.32533 25.6037 1.176C25.9557 1.02667 26.3344 0.952 26.7397 0.952C27.1557 0.952 27.5451 1.02667 27.9078 1.176C28.2811 1.32533 28.6064 1.53333 28.8837 1.8C29.1611 2.06667 29.3797 2.376 29.5398 2.728C29.6997 3.08 29.7797 3.45867 29.7797 3.864ZM33.5287 25V1.688H42.1047C43.7154 1.688 45.0861 1.83733 46.2168 2.136C47.3474 2.43467 48.2701 2.856 48.9848 3.4C49.6994 3.944 50.2167 4.60533 50.5368 5.384C50.8674 6.16267 51.0328 7.032 51.0328 7.992C51.0328 8.51467 50.9581 9.02133 50.8088 9.512C50.6594 9.992 50.4248 10.4453 50.1047 10.872C49.7847 11.2987 49.3741 11.688 48.8727 12.04C48.3714 12.3813 47.7688 12.68 47.0647 12.936C48.6007 13.3093 49.7367 13.9173 50.4727 14.76C51.2087 15.592 51.5767 16.664 51.5767 17.976C51.5767 18.968 51.3847 19.8907 51.0007 20.744C50.6167 21.5973 50.0514 22.344 49.3048 22.984C48.5688 23.6133 47.6568 24.1093 46.5688 24.472C45.4808 24.824 44.2381 25 42.8407 25H33.5287ZM38.9367 15.112V20.92H42.7448C43.4594 20.92 44.0407 20.8293 44.4888 20.648C44.9474 20.4667 45.3048 20.232 45.5608 19.944C45.8167 19.656 45.9927 19.3307 46.0887 18.968C46.1847 18.6053 46.2327 18.2373 46.2327 17.864C46.2327 17.4373 46.1741 17.0533 46.0568 16.712C45.9501 16.3707 45.7581 16.0827 45.4808 15.848C45.2141 15.6133 44.8568 15.432 44.4087 15.304C43.9607 15.176 43.3954 15.112 42.7127 15.112H38.9367ZM38.9367 11.496H41.7527C42.3501 11.496 42.8888 11.4533 43.3687 11.368C43.8487 11.2827 44.2541 11.1333 44.5848 10.92C44.9261 10.7067 45.1821 10.4133 45.3527 10.04C45.5341 9.66667 45.6248 9.19733 45.6248 8.632C45.6248 8.07733 45.5554 7.61867 45.4167 7.256C45.2781 6.88267 45.0647 6.584 44.7767 6.36C44.4888 6.136 44.1208 5.976 43.6727 5.88C43.2354 5.784 42.7128 5.736 42.1047 5.736H38.9367V11.496ZM69.8568 1.688V5.848H60.2887V11.288H67.6167V15.288H60.2887V20.84H69.8568V25H54.8487V1.688H69.8568ZM78.6705 16.376V25H73.2625V1.688H80.8465C82.5318 1.688 83.9665 1.864 85.1505 2.216C86.3452 2.55733 87.3158 3.03733 88.0625 3.656C88.8198 4.27467 89.3692 5.00533 89.7105 5.848C90.0518 6.69067 90.2225 7.608 90.2225 8.6C90.2225 9.35733 90.1212 10.072 89.9185 10.744C89.7158 11.416 89.4118 12.04 89.0065 12.616C88.6118 13.1813 88.1212 13.688 87.5345 14.136C86.9585 14.584 86.2918 14.952 85.5345 15.24C85.8972 15.4213 86.2332 15.6453 86.5425 15.912C86.8625 16.1787 87.1398 16.504 87.3745 16.888L92.3345 25H87.4385C86.5318 25 85.8812 24.6587 85.4865 23.976L81.6145 17.208C81.4438 16.9093 81.2412 16.696 81.0065 16.568C80.7825 16.44 80.4625 16.376 80.0465 16.376H78.6705ZM78.6705 12.648H80.8465C81.5825 12.648 82.2065 12.5573 82.7185 12.376C83.2412 12.184 83.6678 11.9227 83.9985 11.592C84.3292 11.2613 84.5692 10.8773 84.7185 10.44C84.8678 9.992 84.9425 9.512 84.9425 9C84.9425 7.976 84.6065 7.176 83.9345 6.6C83.2732 6.024 82.2438 5.736 80.8465 5.736H78.6705V12.648ZM116.56 25H112.368C111.898 25 111.509 24.8933 111.2 24.68C110.901 24.456 110.693 24.1733 110.576 23.832L109.2 19.768H100.336L98.9597 23.832C98.8531 24.1307 98.6451 24.4027 98.3357 24.648C98.0264 24.8827 97.6477 25 97.1997 25H92.9757L102 1.688H107.536L116.56 25ZM101.584 16.088H107.952L105.808 9.704C105.669 9.29867 105.504 8.824 105.312 8.28C105.13 7.72533 104.949 7.128 104.768 6.488C104.597 7.13867 104.421 7.74133 104.24 8.296C104.058 8.85067 103.888 9.33067 103.728 9.736L101.584 16.088Z" fill="#121111"/>
</svg>
